X:67
%%etbk:tnset id:23,pos:2,rep:3x,ant:
%%etbk:wsite http://www.thesession.org/tunes/display/595
%%etbk:color #ffccbf
%%etbk:pldat 2016-09-11T16:12,2016-09-08T18:11,2016-09-06T17:48,2016-07-12T16:36,2016-07-09T14:21,2016-05-23T19:00,2015-12-23T18:02,2015-12-15T17:49,2015-12-01T17:14,2015-11-28T16:31,2015-11-24T18:38,2015-07-08T16:09,2015-03-25T19:17,2015-02-17T17:14,2015-02-06T18:18,2015-01-29T18:31,2015-01-24T13:11,2015-01-21T18:08,2015-01-20T17:53,2015-01-13T17:50,2014-12-27T14:36,2014-12-26T16:07,2014-12-20T14:30,2014-12-15T16:55,2014-12-01T18:56,2014-11-24T16:16,2014-10-12T15:18,2014-05-19T18:40,2014-05-09T18:18,2014-03-27T18:43,2014-03-14T18:04,2014-02-25T19:37,2014-02-20T19:11,2014-02-13T18:24,2014-02-10T18:52,2013-11-23T15:26,2013-11-19T16:55,2013-11-18T18:47,2013-10-08T15:29,2013-08-29T16:30,2013-08-26T18:22,2013-05-23T18:44,2013-05-22T15:58,2013-05-07T19:33,2013-05-06T18:32,2013-05-05T14:43
T: Dogs Among The Bushes, The
Z: Piano Box Version by Martin Fleischmann
H: Created 2013-02-19 /  Last Modified 2014-12-20
M: 4/4
L: 1/8
R: reel
K: Gmaj
|:"G"!4!B!2!G!1!G!2!G !1!D!2!G!1!G!2!G | !4!B!1!G !3!(3G!2!G!1!G  "C"!3!cedc | "G"!4!B!2!G!1!G!2!G  !1!D!2!G!1!G!2!G | "D"!3!A2!1!A!3!d !5!f!3!d!2!c!1!A:|
"G"!3!d!5!g!3!gf !3!g!2!g!3!gf | !1!d!3!g!2!g!3!g !5!b!3!g!4!a!2!f | "D"!1!d!3!ffe fgfe | !1!d!3!f!2!f!3!f !5!a!3!fff |
"G"!1!d!3!ggf !3!g3f | !1!d!3!g!2!g!3!g !5!b!3!g!4!ag | !5!b!3!g!2!g!3!g !4!a!3!g!3!gf | "D"!1!d2!3!d!4!e !5!f!3!d!2!c!1!A ||


